X: 32881
T: Portpatrick
R: jig
M: 6/8
K: Gmajor
gec cde|f2 e d2 c|gec cdc|[G2d2] e f2 a|
gec cde|[d2f2] [ce] [G2d2] c|ege fdg|ecc c2:|
afa geg|afa geg|abc' gfe|[[G2d2] [ce] [d2f2] a|
gab c'ba|gfe d2 c|ege fdg|ecc [C2c2]:|
dBG GAB|c2 B A2 G|dBG GAG|[D2A2] B c2 e|
dBG GAB|[A2c2] [GB] [D2A2] G|BdB cAd|BGG G2:|
ece dBd|ece dBd|efg dcB|[D2A2] [GB] [A2c2] e|
def gfe|dcB A2 G|BdB cAd|BGG [G,2G2]:|

